X: 97
T: Jinse de shuguang The golden beam
%%abc-version 2.0
%%abcx-abcm2ps-target-version 5.9.1 (29 Sep 2008)
%%abc-creator hum2abc beta
%%abcx-conversion-date 2013/10/02 07:44:27
%%abc-edited-by Helmut Schaffrath
%%humdrum-veritas 1700560678
%%humdrum-veritas-data 637290261
%%continueall 1
%%barnumbers 0
L: 1/8
M: 3/4
K: C
E4G E [I:setbarnb 1]| 
D4C2 | 
A,4C A, | 
G,4A,2 | 
C4G, A, | 
C4D2 | 
E6- | 
E6 | 
G4A G | 
E4G2 | 
A4G E | 
D4E2 | 
A4c2 | 
E4D2 | 
C6- | 
C6 | 
c4c2 | 
c4e2 | 
d4c A | 
G4E2 |]  



